X:1
T:Merry Christmas Bells Are Ringing
T:Merry Christmas Bells Are Ringing
T:Albert Junos Holden
T:Susan Ketcham Bourne, 1892
T:Public Domain Courtesy of the Cyber Hymnal™
T:Public Domain Courtesy of the Cyber Hymnal™
C:Albert Junos Holden
Z:Public Domain
Z:Courtesy of the Cyber Hymnal™
%%score 1 ( 2 3 ) ( 4 5 )
L:1/8
Q:1/4=100
M:4/4
K:Bb
V:1 treble 
V:2 treble 
V:3 treble 
V:4 bass 
V:5 bass 
V:1
 F2 F2 F2 (GA) | B3 c B2 A2 x | B2 A2 A2 G2 | G2 c2 c4 | F2 F2 F2 (GF) | B2 (Bc) B2 A2 | %6
w: 1.~Mer- ry Christ- mas *|bells are ring- ing,|Fill- ing all the|frost- y air,|And the hap- py *|child- ren * sing- ing,|
w: 2.~May a spark of *|ho- ly feel- ing|Soft- ly ev- ery|bo- som thrill,|Love di- vine a- *|new re- * veal- ing|
w: 3.~Chris- tian hearts, sing *|out your glad- ness!|See the star ce-|les- tial shine!|Leave your doubts, for- *|get your * sad- ness,|
 (cB) A2 (GA) B2 | A2 G2 F4 | F2 G2 (AG) A2 | G2 A2 (=BA) B2 | c2 c2 c2 (FG) | (AB) (cd) e4 | %12
w: Greet * this day * of|days most fair;|Ev- ery Chris- * tian|heart res- pond- * ing|Glad- ly joins the *|sweet * re- * frain—|
w: In * the gos- * pel|of good will.|Oh! how sweet * the|Christ- mas mes- * sage|With its gift of *|heav’n- * ly * peace!|
w: Wel- * come now * the|Babe di- vine!|Then re- flect * the|heav’n- ly glo- * ry,|Tell it to the *|world * a- * gain;|
 d2 d2 d3 c | B2 =B2 c2 d2 | e2 e2 e3 d | c2 B2 (A2 G2) ||"^Refrain" F2 F2 F2 (GA) | B2 B2 B2 A2 | %18
w: “O ye sons of|men, be joy- ful,|Christ- mas day has|come a- gain.” *|||
w: Words of ho- ly|ben- e- dic- tion,|Ech- o- ing till|time shall cease! *|Yes, the Christ- mas *|bells are ring- ing,|
w: Live the bless- èd|Christ- mas sto- ry!|“Peace on earth, good|will to men!” *|||
 B2 A2 G2 G2 | A2 B2 c4 x2 | d2 d2 d3 B | e2 e2 d2 (cB) | A2 c2 f3 B | d2 c2 B4 |] %24
w: ||||||
w: Ring- ing out the|sweet re- frain—|“O ye sons of|men, be joy- ful, *|Christ- mas day has|come a- gain.”|
w: ||||||
V:2
 [DF]2 [DF]2 F2 (GA) | B3 z c [FB]2 [FA]2 | [FB]2 [FA]2 [FA]2 [EG]2 | [EG]2 [=Ec]2 [_Ec]4 | %4
 [DF]2 [CF]2 F2 (GF) | [DB]2 (Bc) [FB]2 [FA]2 | (cB) [FA]2 (GA) [FB]2 | [FA]2 [=EG]2 F4 | %8
 F2 [FG]2 (AG) [FA]2 | [FG]2 [FG]2 (=BA) [FB]2 | [Ec]2 [Gc]2 [Fc]2 (FG) | ABcd [FAe]4 | %12
 [DFd]2 [DFd]2 [D^Fd]3 [DAc] | [DGB]2 [DG=B]2 [EGc]2 [FGd]2 | [EGe]2 [EGe]2 [Fce]3 [FBd] | %15
 [Gc]2 [GB]2 ([FA]2 [EG]2) || [DF]2 [B,DF]2 [B,F]2 (GA) | [B,DB]2 [B,FB]2 [CFB]2 [CFA]2 | %18
 [B,FB]2 [B,FA]2 [B,EG]2 [CEG]2 | [CFA]2 [CFGA]2 [Ac]4 [CG]2 | [D^FAd]2 [DAd]2 [DBd]3 B | %21
 [Ge]2 [EGe]2 [FG=Bd]2 (c_B) | [CFA]2 [FAc]2 [FBf]3 [EGB] | [DFBd]2 [EFAc]2 [DFB]4 |] %24
V:3
 x4 F2 F2 | F2 =E2 x5 | x8 | x8 | x4 F2 E2 | x2 =E2 x4 | G2 x F2 x3 | x4 F4 | F2 F2 x4 | x4 F2 x2 | %10
 x6 FG | (ABcd) x4 | x8 | x8 | x8 | x8 || x6 E2 | x8 | x8 | x4 [C-F]2 x4 | x7 B | x6 [CG]2 | x8 | %23
 x8 |] %24
V:4
 [B,,B,]2 [B,,F,]2 [C,A,]2 [E,C]2 | [D,B,]2 [G,C]2 [F,C]2 C2 x | [D,B,]2 [D,B,]2 [E,B,]2 [E,B,]2 | %3
 [C,C]2 [C,B,]2 (B,2 A,2) | [F,B,]2 [E,A,]2 [D,B,]2 [C,A,]2 | [B,,B,]2 [G,C]2 [F,C]2 [F,C]2 | %6
 [=E,C]2 [F,C]2 [B,D]2 [G,D]2 | C2 (CB,) [F,A,]4 | [F,A,]2 [F,B,]2 (CB,) [F,C]2 | %9
 [G,=B,]2 [G,C]2 (DC) [G,D]2 | [G,C]2 [B,E]2 [A,E]2 F,G, | A,B,CD [F,C]4 | %12
 [B,,B,]2 [B,,B,]2 [D,A,]3 [^F,A,] | G,2 G,2 [E,C]2 [D,=B,]2 | [C,C]2 [B,,B,]2 [A,,A,]3 [B,,B,] | %15
 [E,C]2 [=E,C]2 ([F,C][F,,F,][G,,G,][A,,A,]) || [B,,B,]2 [F,,F,]2 [D,,D,]2 [C,,C,]2 | %17
 [B,,,B,,]2 [D,,D,]2 [F,,F,]2 ([F,,F,][E,,E,]) | [D,,D,]2 [B,,,B,,]2 [E,,E,]2 ([C,C][B,,B,]) | %19
 [A,,A,]2 [G,,G,]2 ([F,,F,]2 [E,,E,]2) x2 | [D,,D,]2 [^E,,^F,]2 [G,,G,]3 B, | %21
 [E,B,]2 [C,,C,]2 [D,,D,]2 [E,,E,]2 | [F,,F,]2 [E,,E,]2 [D,,D,]3 [E,,E,] | %23
 [F,,F,]2 [F,,F,]2 [B,,B,]4 |] %24
V:5
 x8 | x6 (F,E,) x | x8 | x4 F,4 | x8 | x8 | x8 | C2 C,2 x4 | x4 F,2 x2 | x4 G,2 x2 | x6 (F,G,) | %11
 (A,B,CD) x4 | x8 | G,2 (G,F,) x4 | x8 | x8 || x8 | x8 | x8 | x10 | x7 B, | x8 | x8 | x8 |] %24

